X:672
T:The Shetland Fiddler
Z:John Chambers <jc:trillian.mit.edu>
M:2/2
L:1/8
S:Colin Hume's website,  colinhume.com  - chords can also be printed below the stave.
Q:1/2=112
K:D
P:A
|: zA | "D"d2fd A2fe | "D"defg afdf | "Em"e2ge B2ed | "A"cdef gece |\
| "D"d2fd A2fe | "D"defg afdf | "D"fafd fafd | "G"Bg"A7"ec "D"d2 :|
P:B
|: cd | "A7"eAfA gAaA | "D"faaf gfed | "A7"AaBa cada | "A7"efed cBAc |\
| "D"dAeA fAgA | "D"faaf "A7"gfeg | "D"fafd fafd | "G"Bg"A7"ec "D"d2 :|

